src/icons/outline/symbols/workflow.svg

<svg width="24" height="24" viewBox="0 0 24 24" fill="none" xmlns="http://www.w3.org/2000/svg">
<g clip-path="url(#clip0_4787_586)">
<path fill-rule="evenodd" clip-rule="evenodd" d="M8.11816 9.38477C8.79275 9.38485 9.31054 9.90387 9.31055 10.6025V11.252H10.4062L10.5303 11.2578C11.1433 11.3173 11.5986 11.8146 11.5986 12.4697V19.6357H12.4014V18.9873C12.4014 18.2986 12.9093 17.7695 13.5938 17.7695H21.8066C22.4813 17.7695 23 18.2886 23 18.9873V21.7822C23 22.3612 22.5106 23 21.8066 23H13.5938C12.9191 23 12.4014 22.481 12.4014 21.7822V21.1338H11.3154C10.6409 21.1338 10.1222 20.6146 10.1221 19.916V12.749H9.31055V13.3975C9.31055 13.9764 8.82207 14.6151 8.11816 14.6152H3.55176C2.8771 14.6152 2.35938 14.0962 2.35938 13.3975V10.6025C2.35938 9.9138 2.86733 9.38478 3.55176 9.38477H8.11816ZM13.877 21.5029H21.5332V19.2764H13.877V21.5029ZM3.83496 13.1182H7.84375V10.8916H3.83496V13.1182Z" fill="#3C3B44"/>
<path fill-rule="evenodd" clip-rule="evenodd" d="M10.4062 1C11.0809 1.00001 11.5986 1.51906 11.5986 2.21777V2.86719H13.5938L13.7178 2.87305C14.3308 2.93244 14.7861 3.42975 14.7861 4.08496V8.92578H16.0479V8.2666C16.048 7.57798 16.5569 7.04883 17.2412 7.04883H21.8066C22.4812 7.04883 22.9999 7.568 23 8.2666V11.0615C23 11.6405 22.5106 12.2793 21.8066 12.2793H17.2412C16.5665 12.2793 16.0479 11.7603 16.0479 11.0615V10.4229H14.5127C13.8381 10.4228 13.3203 9.90378 13.3203 9.20508V4.36426H11.5986V5.0127C11.5986 5.59164 11.1102 6.23045 10.4062 6.23047H2.19336C1.51869 6.23047 1 5.71143 1 5.0127V2.21777C1.00001 1.52903 1.50892 1 2.19336 1H10.4062ZM17.5244 10.7822H21.5332V8.55664H17.5244V10.7822ZM2.4668 4.7334H10.123V2.49707H2.4668V4.7334Z" fill="#3C3B44"/>
</g>
<defs>
<clipPath id="clip0_4787_586">
<rect width="24" height="24" fill="white"/>
</clipPath>
</defs>
</svg>

<svg xmlns="http://www.w3.org/2000/svg" width="24" height="24" fill="none" viewBox="0 0 24 24"><g fill="currentColor" fill-rule="evenodd" clip-path="url(#a)" clip-rule="evenodd"><path d="M8.118 9.385c.675 0 1.193.519 1.193 1.217v.65h1.095l.124.006c.613.06 1.069.557 1.069 1.212v7.166h.802v-.649c0-.688.508-1.217 1.193-1.217h8.213c.674 0 1.193.519 1.193 1.217v2.795c0 .58-.49 1.218-1.193 1.218h-8.213c-.675 0-1.193-.519-1.193-1.218v-.648h-1.086c-.674 0-1.193-.52-1.193-1.218v-7.167h-.811v.649c0 .578-.489 1.217-1.193 1.217H3.552c-.675 0-1.193-.519-1.193-1.217v-2.796c0-.688.508-1.217 1.193-1.217zm5.759 12.118h7.656v-2.227h-7.656zM3.835 13.118h4.009v-2.226H3.835zM10.406 1c.675 0 1.193.52 1.193 1.218v.65h1.995l.124.005c.613.06 1.068.557 1.068 1.212v4.84h1.262v-.658c0-.689.509-1.218 1.193-1.218h4.566c.674 0 1.193.519 1.193 1.218v2.795c0 .579-.49 1.217-1.193 1.217H17.24c-.674 0-1.193-.519-1.193-1.217v-.64h-1.535c-.675 0-1.193-.518-1.193-1.217v-4.84H11.6v.648c0 .579-.489 1.217-1.193 1.217H2.193C1.52 6.23 1 5.711 1 5.013V2.218C1 1.529 1.509 1 2.193 1zm7.118 9.782h4.01V8.557h-4.01zM2.467 4.733h7.656V2.497H2.467z"/></g><defs><clipPath id="a"><path fill="currentColor" d="M0 0h24v24H0z"/></clipPath></defs></svg>
